build/system/DesktopCloudOutline.svg

<svg xmlns="http://www.w3.org/2000/svg" fill="none" viewBox="0 0 24 24" focusable="false"><path d="M0 0H24V24H0z"/><path fill="#74767B" fill-rule="evenodd" d="M3 7C3 5.34326 4.34326 4 6 4L17.9941 4C19.6509 4 20.9941 5.34326 20.9941 7L20.9941 13.9844C20.9941 15.6411 19.6509 16.9839 17.9941 16.9839L13.9868 16.9839L13.9868 18.6904L15.3374 18.6904C15.6963 18.6904 15.9873 18.9814 15.9873 19.3403C15.9873 19.6992 15.6963 19.9902 15.3374 19.9902L8.65674 19.9902C8.29785 19.9902 8.00684 19.6992 8.00684 19.3403C8.00684 18.9814 8.29785 18.6904 8.65674 18.6904L10.0029 18.6904L10.0029 16.9839L6 16.9839C4.34326 16.9839 3 15.6411 3 13.9844L3 7ZM6 5.2998L17.9941 5.2998C18.9331 5.2998 19.6938 6.06104 19.6938 7L19.6938 13.9844C19.6938 14.9229 18.9331 15.6841 17.9941 15.6841L6 15.6841C5.06104 15.6841 4.2998 14.9229 4.2998 13.9844L4.2998 7C4.2998 6.06104 5.06104 5.2998 6 5.2998ZM8.97607 14.0806C9.11963 14.1118 9.26611 14.1274 9.4165 14.1274L14.6074 14.1274C14.7935 14.1274 14.9785 14.1079 15.1558 14.0693C15.3066 14.0361 15.4546 13.9888 15.5996 13.9277C15.7446 13.8662 15.8813 13.793 16.0107 13.7075C16.1519 13.6143 16.2837 13.5063 16.4062 13.3838C16.5288 13.2612 16.6367 13.1294 16.73 12.9878C16.8154 12.8589 16.8887 12.7217 16.9502 12.5771C17.0112 12.4321 17.0586 12.2842 17.0918 12.1328C17.1304 11.9556 17.1499 11.7744 17.1499 11.5884C17.1499 11.4028 17.1304 11.2212 17.0918 11.0439C17.0586 10.8931 17.0112 10.7451 16.9502 10.6001C16.8887 10.4551 16.8154 10.3179 16.73 10.189C16.6367 10.0474 16.5288 9.91553 16.4062 9.79297C16.2837 9.6709 16.1519 9.56299 16.0107 9.46924C15.8813 9.38379 15.7446 9.31055 15.5996 9.24951C15.4546 9.18799 15.3066 9.14111 15.1558 9.10791C15.0918 8.92578 14.9331 8.65918 14.8359 8.48926C14.7456 8.33105 14.6436 8.18213 14.5298 8.04248C14.4082 7.89404 14.2734 7.75635 14.125 7.62939C13.9717 7.49756 13.8086 7.38232 13.6367 7.2832C13.4844 7.19531 13.3252 7.12012 13.1587 7.05713C12.9956 6.99561 12.8301 6.94775 12.6611 6.91357C12.4497 6.87061 12.2339 6.84961 12.0142 6.84961C11.7749 6.84961 11.5415 6.87451 11.3135 6.9248C11.1216 6.9668 10.9336 7.02686 10.75 7.10498C10.5649 7.18311 10.3906 7.27637 10.2261 7.38477C10.0444 7.50488 9.875 7.64355 9.71777 7.80029C9.56055 7.95752 9.42236 8.12695 9.30225 8.30859C9.19385 8.47314 9.1001 8.64795 9.02197 8.83252C8.94434 9.0166 8.88428 9.20459 8.8418 9.39648C8.79199 9.62402 8.7666 9.85791 8.7666 10.0967C8.71484 10.1143 8.66309 10.1353 8.61182 10.1567C8.49365 10.207 8.38184 10.2666 8.27637 10.3364C8.16162 10.4126 8.05469 10.5 7.95508 10.5991C7.85596 10.6987 7.76855 10.8057 7.69238 10.9204C7.62256 11.0259 7.5625 11.1377 7.5127 11.2559C7.4624 11.375 7.42383 11.4961 7.39697 11.6201C7.36572 11.7637 7.3501 11.9102 7.3501 12.0605C7.3501 12.2109 7.36572 12.3579 7.39697 12.5015C7.42383 12.625 7.4624 12.7466 7.5127 12.8652C7.5625 12.9839 7.62256 13.0957 7.69238 13.2012C7.76855 13.3159 7.85596 13.4229 7.95508 13.522C8.05469 13.6211 8.16162 13.709 8.27637 13.7847C8.38184 13.8545 8.49365 13.9146 8.61182 13.9648C8.73096 14.0151 8.85205 14.0537 8.97607 14.0806ZM9.4165 12.8271C9.31055 12.8271 9.2124 12.8086 9.12207 12.771C9.03174 12.7339 8.94922 12.6777 8.87451 12.603C8.7998 12.5278 8.74365 12.4453 8.70605 12.355C8.66846 12.2646 8.6499 12.1665 8.6499 12.0605C8.6499 11.9546 8.66846 11.8569 8.70605 11.7666C8.74365 11.6758 8.7998 11.5933 8.87451 11.5186C8.94922 11.4438 9.03174 11.3877 9.12207 11.3501C9.21289 11.3125 9.31055 11.2939 9.4165 11.2939C9.46973 11.2939 9.52197 11.2881 9.57227 11.2769C9.62256 11.2651 9.67139 11.248 9.71875 11.2251C9.76416 11.2036 9.80566 11.1777 9.84424 11.1475C9.8833 11.1172 9.91895 11.083 9.95166 11.0439C9.98438 11.0049 10.0122 10.9629 10.0356 10.9185C10.0581 10.875 10.0762 10.8291 10.0894 10.7808C10.1035 10.729 10.1118 10.6772 10.1138 10.625C10.1157 10.5723 10.1118 10.519 10.1016 10.4658C10.0859 10.3652 10.0669 10.1997 10.0669 10.0967C10.0669 9.94531 10.0835 9.79834 10.1167 9.65479C10.1416 9.54736 10.1758 9.44189 10.2192 9.33887C10.2646 9.23193 10.3184 9.13086 10.3809 9.03516C10.4541 8.92236 10.5396 8.81689 10.6372 8.71973C10.7344 8.62256 10.8394 8.53711 10.9521 8.46338C11.0479 8.40137 11.1494 8.34717 11.2563 8.30225C11.3594 8.2583 11.4648 8.22412 11.5723 8.19922C11.7153 8.16602 11.8628 8.14941 12.0142 8.14941C12.1553 8.14941 12.2935 8.16406 12.4282 8.19336C12.5205 8.21338 12.6113 8.24023 12.7002 8.27344C12.7959 8.30957 12.8872 8.35254 12.9746 8.40234C13.082 8.46338 13.1836 8.53467 13.2793 8.6167C13.3706 8.69482 13.4531 8.7793 13.5273 8.87109C13.5938 8.95312 13.6538 9.04053 13.707 9.1333C13.7651 9.23633 13.814 9.34229 13.8521 9.45166C13.8892 9.55664 13.9165 9.66455 13.9351 9.77588C13.9487 9.8584 13.9746 9.93408 14.0137 10.0024C14.0522 10.0708 14.1035 10.1323 14.1675 10.1865C14.2314 10.2412 14.3008 10.2817 14.3745 10.3091C14.4482 10.3359 14.5273 10.3496 14.6108 10.3496C14.709 10.3496 14.8042 10.3604 14.897 10.3823C14.9639 10.3979 15.0293 10.4194 15.0933 10.4468C15.1602 10.4751 15.2236 10.5088 15.2842 10.5479C15.3569 10.5947 15.4243 10.6499 15.4873 10.7124C15.5498 10.7749 15.6045 10.8428 15.6519 10.9155C15.6909 10.9756 15.7246 11.0396 15.7529 11.1064C15.7798 11.1704 15.8013 11.2358 15.8169 11.3022C15.8389 11.395 15.8501 11.4907 15.8501 11.5884C15.8501 11.6865 15.8389 11.7817 15.8169 11.8745C15.8013 11.9409 15.7798 12.0063 15.7529 12.0703C15.7246 12.1377 15.6909 12.2012 15.6519 12.2612C15.6045 12.334 15.5498 12.4019 15.4873 12.4644C15.4243 12.5273 15.3569 12.582 15.2842 12.6289C15.2236 12.668 15.1602 12.7017 15.0933 12.7305C15.0293 12.7573 14.9639 12.7788 14.897 12.7944C14.8042 12.8164 14.709 12.8271 14.6108 12.8271L9.4165 12.8271ZM12.687 16.9839L12.687 18.6904L11.3032 18.6904L11.3032 16.9839L12.687 16.9839Z"/></svg>

<svg xmlns="http://www.w3.org/2000/svg" fill="none" viewBox="0 0 24 24" focusable="false"><path fill="#74767B" fill-rule="evenodd" d="M3 7c0-1.66 1.34-3 3-3h11.99c1.66 0 3 1.34 3 3v6.98c0 1.66-1.34 3-3 3h-4.01v1.71h1.35c.36 0 .65.29.65.65 0 .35-.29.65-.65.65H8.65c-.36 0-.65-.3-.65-.65 0-.36.29-.65.65-.65H10v-1.71H6c-1.66 0-3-1.34-3-3zm3-1.71h11.99c.94 0 1.7.77 1.7 1.71v6.98c0 .94-.76 1.7-1.7 1.7H6c-.94 0-1.71-.76-1.71-1.7V7c0-.94.77-1.71 1.71-1.71m2.97 8.79c.14.03.29.04.44.04h5.19a2.5 2.5 0 0 0 .99-.2 2.371 2.371 0 0 0 .81-.54c.12-.12.23-.26.33-.4.08-.13.15-.26.22-.41.06-.14.1-.29.14-.44.04-.18.05-.36.05-.55 0-.18-.01-.36-.05-.54-.04-.15-.08-.3-.14-.44-.07-.15-.14-.29-.22-.42a3.1 3.1 0 0 0-.72-.72c-.13-.08-.27-.15-.42-.22-.14-.06-.29-.1-.44-.14-.06-.18-.22-.45-.32-.62-.09-.15-.19-.3-.31-.44-.12-.15-.25-.29-.4-.42s-.32-.24-.49-.34c-.15-.09-.31-.16-.48-.23-.16-.06-.32-.11-.49-.14a3.6 3.6 0 0 0-.65-.07 3.3 3.3 0 0 0-1.26.26c-.19.08-.36.17-.53.28a3.35 3.35 0 0 0-.92.92c-.11.17-.2.34-.28.53a3.266 3.266 0 0 0-.26 1.26l-.15.06c-.12.05-.23.11-.34.18-.11.08-.22.17-.32.26-.1.1-.19.21-.26.33q-.105.15-.18.33c-.05.12-.09.24-.12.37-.03.14-.04.29-.04.44s.01.29.04.44q.045.18.12.36c.05.12.11.23.18.34s.16.22.26.32.21.18.32.26c.11.07.22.13.34.18q.18.075.36.12m.44-1.26c-.1 0-.2-.02-.29-.05a.794.794 0 0 1-.42-.42.7.7 0 0 1-.06-.29q0-.165.06-.3c.04-.09.09-.17.17-.25.07-.07.16-.13.25-.16.09-.04.19-.06.29-.06.05 0 .11-.01.16-.02s.1-.03.14-.05c.05-.02.09-.05.13-.08s.07-.06.11-.1c.03-.04.06-.08.08-.13.02-.04.04-.09.05-.13.02-.06.03-.11.03-.16s0-.11-.01-.16c-.02-.1-.04-.27-.04-.37 0-.15.02-.3.05-.44.03-.11.06-.21.1-.32.05-.1.1-.2.17-.3.07-.11.15-.22.25-.32.1-.09.2-.18.32-.25.09-.06.19-.12.3-.16.1-.05.21-.08.32-.11a1.84 1.84 0 0 1 .85 0 1.664 1.664 0 0 1 .55.21q.165.09.3.21c.1.08.18.16.25.26.07.08.13.17.18.26.06.1.11.21.15.32.03.1.06.21.08.32a.655.655 0 0 0 .23.41q.105.09.21.12c.07.03.15.04.24.04s.19.02.28.04a1.14 1.14 0 0 1 .39.16c.07.05.14.1.2.17.06.06.12.13.17.2.04.06.07.12.1.19.02.07.05.13.06.2.02.09.04.19.04.28 0 .1-.02.2-.04.29-.01.07-.04.13-.06.2-.03.06-.06.13-.1.19-.05.07-.11.14-.17.2s-.13.12-.2.16c-.06.04-.12.08-.19.11l-.2.06c-.09.02-.19.03-.28.03zm3.27 4.16v1.71H11.3v-1.71z"/></svg>
